src/symbolic/status/sensors-temperature-symbolic.svg

<svg xmlns="http://www.w3.org/2000/svg" width="16" height="16"><path d="M8 0C6.338 0 5 1.338 5 3v4.008A4.998 4.998 0 0 0 3 11a5 5 0 0 0 10 0 4.998 4.998 0 0 0-2-3.992V3c0-1.662-1.338-3-3-3zm0 2c.554 0 1 .446 1 1v5.176A3 3 0 0 1 11 11a3 3 0 1 1-4-2.826V3c0-.554.446-1 1-1z" fill="#444"/><path d="M7 6v2.174A3 3 0 0 0 5 11a3 3 0 0 0 3 3 3 3 0 0 0 3-3 3 3 0 0 0-2-2.824V6z" opacity=".3" fill="#444"/></svg>

<svg xmlns="http://www.w3.org/2000/svg" width="16" height="16" version="1.1">
 <path style="fill:#444444" d="M 8,0 C 6.338,0 5,1.338 5,3 V 7.0078 C 3.743,7.9504 3.002,9.429 3,11 3,13.761 5.239,16 8,16 10.761,16 13,13.761 13,11 12.998,9.429 12.257,7.9504 11,7.0078 V 3 C 11,1.338 9.662,0 8,0 Z M 8,2 C 8.554,2 9,2.446 9,3 V 8.1758 C 10.197,8.5991 10.998,9.7302 11,11 11,12.657 9.657,14 8,14 6.343,14 5,12.657 5,11 5.001,9.7295 5.802,8.5973 7,8.1738 V 3 C 7,2.446 7.446,2 8,2 Z"/>
 <path style="opacity:0.3;fill:#444444" d="M 7,6 V 8.1738 A 3,3 0 0 0 5,11 3,3 0 0 0 8,14 3,3 0 0 0 11,11 3,3 0 0 0 9,8.1758 V 6 Z"/>
</svg>
